brandFactory_export/1.Light/Biblioteca_1Light.svg

<?xml version="1.0" encoding="UTF-8"?>
<svg width="24px" height="24px" viewBox="0 0 24 24" version="1.1" xmlns="http://www.w3.org/2000/svg" xmlns:xlink="http://www.w3.org/1999/xlink">
    <title>1.Light/Biblioteca_1Light</title>
    <g id="Symbols" stroke="none" stroke-width="1" fill="none" fill-rule="evenodd">
        <g id="1.Light/Biblioteca_1Light" fill="#5CB615" fill-rule="nonzero">
            <path d="M22.6386555,18.2151261 C17.7176471,18.3058824 13.8487395,19.7647059 12.302521,20.4436975 L12.302521,5.07226891 C16.3865546,3.00168067 21.1630252,2.96806723 22.6386555,3.01176471 L22.6386555,18.2151261 Z M0.98487395,3.01512605 C2.45378151,2.96806723 7.23697479,3.00518069 11.3210084,5.07563025 L11.3210084,20.4470588 C9.77815126,19.7680672 5.90588235,18.312605 0.98487395,18.2184874 L0.98487395,3.01512605 Z M23.1697479,2.0605042 C22.9109244,2.03697479 16.9378151,1.60672269 11.8084034,4.23193277 C6.6789916,1.61008403 0.709243697,2.04033613 0.453781513,2.06386555 C0.198319328,2.08067227 0,2.29243697 0,2.54789916 L0,18.6991597 C0,18.9680672 0.221848739,19.1865546 0.490756303,19.1865546 C6.77983193,19.1865546 11.5361345,21.6235294 11.5831933,21.6470588 C11.6537815,21.6840336 11.7310924,21.7008403 11.8117647,21.7008403 C11.8319328,21.7008403 11.8521008,21.687395 11.8722689,21.6840336 C11.9294118,21.6806723 11.9865546,21.6672269 12.0369748,21.6436975 L12.0605042,21.6302521 L12.0638655,21.6302521 C12.3529412,21.4857143 17.005042,19.1831933 23.1260504,19.1831933 C23.3983193,19.1831933 23.6169727,18.9647059 23.6169727,18.692437 L23.6169727,2.54453782 C23.6235294,2.28907563 23.4252101,2.08067227 23.1697479,2.0605042 Z" id="Biblioteca_1Light"></path>
        </g>
    </g>
</svg>

<svg width="24" height="24" viewBox="0 0 24 24" xmlns="http://www.w3.org/2000/svg"><path d="M22.639 18.215c-4.921.09-8.79 1.55-10.336 2.229V5.072c4.084-2.07 8.86-2.104 10.336-2.06v15.203zM.985 3.015c1.469-.047 6.252-.01 10.336 2.06v15.372c-1.543-.679-5.415-2.134-10.336-2.229V3.015zm22.185-.954c-.26-.024-6.232-.454-11.362 2.17C6.68 1.612.71 2.042.454 2.065A.485.485 0 000 2.548v16.151a.49.49 0 00.49.488c6.29 0 11.046 2.437 11.093 2.46.07.037.148.054.229.054.02 0 .04-.014.06-.017a.456.456 0 00.165-.04l.024-.014h.003c.289-.144 4.941-2.447 11.062-2.447a.49.49 0 00.491-.49V2.544a.477.477 0 00-.447-.484z" fill="#5CB615" fill-rule="nonzero"/></svg>
